X:51
T:Rakes of Clonmel, The
S:Trad, arr. Paddy O'Brien
R:jig
E:10
I:speed 350
M:6/8
K:ADor
A/2B/2|cBA GED|EAA ~A2B|cBc Adc|BGF GBd|\
gfg (4efge|dBG Bcd|ecA GED|EAA ~A2:|\
a|aea aed|cAA Aef|gfg (4efge|dBG GAB|\
cBc d^cd|edc Bcd|ecA GED|EAA A2:|\
B|~A2a aga|bge ~e2f|gfg bge|dBG GAB|\
cBc d^cd|edc Bcd|ecA GED|EAA ~A2:|**

\vfill\eject


